src/pages/elements/pictograms/images/02_Padding_2_do.svg

<?xml version="1.0" encoding="UTF-8"?>
<svg width="288px" height="288px" viewBox="0 0 288 288" version="1.1" xmlns="http://www.w3.org/2000/svg" xmlns:xlink="http://www.w3.org/1999/xlink">
    <!-- Generator: Sketch 55.2 (78181) - https://sketchapp.com -->
    <title>Artboard Copy 89</title>
    <desc>Created with Sketch.</desc>
    <defs>
        <polygon id="path-1" points="0 184 184 184 184 0 0 0"></polygon>
    </defs>
    <g id="Artboard-Copy-89" stroke="none" stroke-width="1" fill="none" fill-rule="evenodd">
        <g id="Padding-do-Copy">
            <rect id="Rectangle-3" fill="#FFFFFF" x="0" y="0" width="288" height="288"></rect>
            <g id="Group-30" transform="translate(51.000000, 51.000000)" stroke="#DCDCDC" stroke-linecap="square" stroke-width="0.5">
                <g id="Group-3" transform="translate(0.500000, 0.500000)">
                    <g id="Grid-01">
                        <g id="Vertical-lines" transform="translate(0.205100, 0.615299)">
                            <path d="M0.410199557,0 L0.410199557,183.769401" id="Line"></path>
                            <path d="M17.6385809,0 L17.6385809,183.769401" id="Line"></path>
                            <path d="M6.15299335,0 L6.15299335,183.769401" id="Line"></path>
                            <path d="M23.3813747,0 L23.3813747,183.769401" id="Line"></path>
                            <path d="M11.8957871,0 L11.8957871,183.769401" id="Line"></path>
                            <path d="M29.1241685,0 L29.1241685,183.769401" id="Line"></path>
                            <path d="M34.8669623,0 L34.8669623,183.769401" id="Line"></path>
                            <path d="M40.6097561,0 L40.6097561,183.769401" id="Line"></path>
                            <path d="M46.3525499,0 L46.3525499,183.769401" id="Line"></path>
                            <path d="M52.0953437,0 L52.0953437,183.769401" id="Line"></path>
                            <path d="M57.8381375,0 L57.8381375,183.769401" id="Line"></path>
                            <path d="M63.5809313,0 L63.5809313,183.769401" id="Line"></path>
                            <path d="M69.3237251,0 L69.3237251,183.769401" id="Line"></path>
                            <path d="M75.0665188,0 L75.0665188,183.769401" id="Line"></path>
                            <path d="M80.8093126,0 L80.8093126,183.769401" id="Line"></path>
                            <path d="M86.5521064,0 L86.5521064,183.769401" id="Line"></path>
                            <path d="M92.2949002,0 L92.2949002,183.769401" id="Line"></path>
                            <path d="M98.037694,0 L98.037694,183.769401" id="Line"></path>
                            <path d="M103.780488,0 L103.780488,183.769401" id="Line"></path>
                            <path d="M109.523282,0 L109.523282,183.769401" id="Line"></path>
                            <path d="M115.266075,0 L115.266075,183.769401" id="Line"></path>
                            <path d="M121.008869,0 L121.008869,183.769401" id="Line"></path>
                            <path d="M126.751663,0 L126.751663,183.769401" id="Line"></path>
                            <path d="M132.494457,0 L132.494457,183.769401" id="Line"></path>
                            <path d="M138.237251,0 L138.237251,183.769401" id="Line"></path>
                            <path d="M143.980044,0 L143.980044,183.769401" id="Line"></path>
                            <path d="M149.722838,0 L149.722838,183.769401" id="Line"></path>
                            <path d="M155.465632,0 L155.465632,183.769401" id="Line"></path>
                            <path d="M161.208426,0 L161.208426,183.769401" id="Line"></path>
                            <path d="M166.95122,0 L166.95122,183.769401" id="Line"></path>
                            <path d="M172.694013,0 L172.694013,183.769401" id="Line"></path>
                            <path d="M178.436807,0 L178.436807,183.769401" id="Line"></path>
                            <path d="M184.179601,0 L184.179601,183.769401" id="Line"></path>
                        </g>
                        <g id="Horizontal" transform="translate(92.500000, 92.500000) rotate(90.000000) translate(-92.500000, -92.500000) translate(0.205100, 0.615299)">
                            <path d="M0.410199557,0 L0.410199557,183.769401" id="Line"></path>
                            <path d="M17.6385809,0 L17.6385809,183.769401" id="Line"></path>
                            <path d="M6.15299335,0 L6.15299335,183.769401" id="Line"></path>
                            <path d="M23.3813747,0 L23.3813747,183.769401" id="Line"></path>
                            <path d="M11.8957871,0 L11.8957871,183.769401" id="Line"></path>
                            <path d="M29.1241685,0 L29.1241685,183.769401" id="Line"></path>
                            <path d="M34.8669623,0 L34.8669623,183.769401" id="Line"></path>
                            <path d="M40.6097561,0 L40.6097561,183.769401" id="Line"></path>
                            <path d="M46.3525499,0 L46.3525499,183.769401" id="Line"></path>
                            <path d="M52.0953437,0 L52.0953437,183.769401" id="Line"></path>
                            <path d="M57.8381375,0 L57.8381375,183.769401" id="Line"></path>
                            <path d="M63.5809313,0 L63.5809313,183.769401" id="Line"></path>
                            <path d="M69.3237251,0 L69.3237251,183.769401" id="Line"></path>
                            <path d="M75.0665188,0 L75.0665188,183.769401" id="Line"></path>
                            <path d="M80.8093126,0 L80.8093126,183.769401" id="Line"></path>
                            <path d="M86.5521064,0 L86.5521064,183.769401" id="Line"></path>
                            <path d="M92.2949002,0 L92.2949002,183.769401" id="Line"></path>
                            <path d="M98.037694,0 L98.037694,183.769401" id="Line"></path>
                            <path d="M103.780488,0 L103.780488,183.769401" id="Line"></path>
                            <path d="M109.523282,0 L109.523282,183.769401" id="Line"></path>
                            <path d="M115.266075,0 L115.266075,183.769401" id="Line"></path>
                            <path d="M121.008869,0 L121.008869,183.769401" id="Line"></path>
                            <path d="M126.751663,0 L126.751663,183.769401" id="Line"></path>
                            <path d="M132.494457,0 L132.494457,183.769401" id="Line"></path>
                            <path d="M138.237251,0 L138.237251,183.769401" id="Line"></path>
                            <path d="M143.980044,0 L143.980044,183.769401" id="Line"></path>
                            <path d="M149.722838,0 L149.722838,183.769401" id="Line"></path>
                            <path d="M155.465632,0 L155.465632,183.769401" id="Line"></path>
                            <path d="M161.208426,0 L161.208426,183.769401" id="Line"></path>
                            <path d="M166.95122,0 L166.95122,183.769401" id="Line"></path>
                            <path d="M172.694013,0 L172.694013,183.769401" id="Line"></path>
                            <path d="M178.436807,0 L178.436807,183.769401" id="Line"></path>
                            <path d="M184.179601,0 L184.179601,183.769401" id="Line"></path>
                        </g>
                    </g>
                </g>
            </g>
        </g>
        <path d="M52,52 L236,52 L236,236 L52,236 L52,52 Z M57.75,57.75 L57.75,230.25 L230.25,230.25 L230.25,57.75 L57.75,57.75 Z" id="Combined-Shape-Copy-3" fill="#97C1FF" fill-rule="nonzero" opacity="0.6"></path>
        <g id="Group-13-Copy-2" transform="translate(52.000000, 52.000000)">
            <path d="M164.8295,86.463325 L149.08025,59.231325 L159.64875,53.130575 L175.421,80.356825 L164.8295,86.463325 Z M137.51125,61.128825 L128.915,59.041575 L131.4105,50.560325 L158.41825,34.977825 L164.51325,45.546325 L137.51125,61.128825 Z M122.3945,74.612575 L112.171,56.902575 C116.7595,55.350075 122.0035,57.207325 124.522,61.577325 C127.04625,65.947325 126.04,71.398325 122.3945,74.612575 L122.3945,74.612575 Z M123.19375,14.674575 L133.768,8.573825 L149.247,35.495325 L138.68425,41.584575 L123.19375,14.674575 Z M180.044,80.080825 L163.23675,51.066325 L168.37725,48.093575 C168.8545,47.817575 169.20525,47.369075 169.34325,46.834325 C169.487,46.311075 169.41225,45.741825 169.13625,45.270325 L160.9655,31.119575 C160.39625,30.119075 159.13125,29.797075 158.14225,30.360575 L152.835,33.419575 L136.321,4.709825 C136.045,4.232575 135.59075,3.887575 135.06175,3.743825 C134.52125,3.611575 133.95775,3.674825 133.492,3.950825 L119.3355,12.121575 C118.3465,12.690825 118.0015,13.961575 118.57075,14.944825 L135.0905,43.654575 L128.62175,47.386325 C128.16175,47.650825 127.81675,48.082075 127.66725,48.593825 L125.42475,56.218325 C123.694,54.591075 121.61825,53.349075 119.26075,52.716575 C115.48875,51.721825 111.56725,52.227825 108.2035,54.177075 C107.20875,54.746325 106.87525,56.011325 107.45025,57.000325 L112.5275,65.803575 L108.22075,68.293325 L110.29075,71.875575 L114.60325,69.385825 L119.945,78.654825 C120.221,79.132075 120.6695,79.477075 121.20425,79.620825 C121.37675,79.661075 121.56075,79.689825 121.739,79.689825 C122.0955,79.689825 122.45775,79.597825 122.774,79.408075 C128.4665,76.124825 131.03675,69.564075 129.605,63.469075 L137.33875,65.343575 C137.49975,65.383825 137.66075,65.406825 137.8275,65.406825 C138.184,65.406825 138.54625,65.309075 138.85675,65.125075 L145.49225,61.295575 L162.28225,90.327325 C162.66175,90.988575 163.3575,91.362325 164.0705,91.362325 C164.427,91.362325 164.77775,91.270325 165.1055,91.080575 L179.285,82.909825 C179.76225,82.639575 180.10725,82.185325 180.251,81.650575 C180.389,81.121575 180.31425,80.558075 180.044,80.080825 L180.044,80.080825 Z" id="Fill-1" fill="#000000"></path>
            <path d="M133.289025,174.291125 L131.213275,170.708875 C152.160525,158.564875 164.672525,137.738375 164.678275,114.997125 L168.824025,114.997125 C168.818275,139.227625 155.530025,161.393875 133.289025,174.291125" id="Fill-3" fill="#000000"></path>
            <path d="M103.146375,93.117225 L93.365625,110.154475 C92.940125,110.890475 92.940125,111.804725 93.365625,112.534975 L102.082625,127.697725 C102.513875,128.439475 103.301625,128.899475 104.164125,128.899475 L112.668375,128.899475 C112.840875,127.162975 112.927125,125.403475 112.927125,123.626725 C112.927125,112.258975 109.298875,101.724975 103.146375,93.117225 L103.146375,93.117225 Z M12.859875,101.178725 C9.628375,107.992475 7.822875,115.599725 7.822875,123.626725 C7.822875,142.308475 17.620875,158.741975 32.346625,168.062725 L40.925625,153.227725 C41.351125,152.491725 41.351125,151.571725 40.925625,150.835725 L35.687375,141.756475 C34.157875,139.122975 34.646625,135.822475 36.866125,133.723725 L44.795375,126.271725 C45.611875,125.506975 45.790125,124.293725 45.232375,123.327725 L39.315625,113.081225 C38.890125,112.339475 38.096625,111.885225 37.239875,111.885225 L22.836125,111.885225 C20.513125,111.885225 18.345375,110.631725 17.183875,108.624975 L12.859875,101.178725 Z M35.928875,170.144225 C38.205875,171.340225 40.574875,172.375225 43.030125,173.243475 L70.555375,147.126975 C71.371875,146.356475 71.550125,145.143225 70.992375,144.177225 L50.022125,107.750975 C48.492625,105.105975 48.987125,101.799725 51.218125,99.706725 L65.018125,86.981975 C65.828875,86.222975 66.012875,85.009725 65.449375,84.043725 L57.985875,71.123475 C39.769875,71.939975 23.934375,82.082975 15.148375,96.877725 L20.766125,106.549225 C21.191625,107.285225 21.985125,107.739475 22.836125,107.739475 L37.239875,107.739475 C39.568625,107.739475 41.742125,108.998725 42.903625,111.011225 L48.814625,121.257725 C50.338375,123.896975 49.849625,127.197475 47.635875,129.290475 L39.706625,136.748225 C38.884375,137.512975 38.711875,138.720475 39.269625,139.686475 L44.507875,148.765725 C45.675125,150.772475 45.675125,153.285225 44.507875,155.297725 L35.928875,170.144225 Z M47.601375,174.611975 C51.695375,175.635475 55.973375,176.175975 60.377875,176.175975 C86.137875,176.175975 107.631375,157.540225 112.087625,133.039475 L104.164125,133.039475 C101.829625,133.039475 99.656125,131.785975 98.488875,129.761975 L89.777625,114.604975 C88.621875,112.609725 88.616125,110.108475 89.771875,108.090225 L100.392125,89.598225 C91.232375,78.839975 77.811875,71.801975 62.769875,71.123475 L69.031625,81.973725 C70.561125,84.612975 70.072375,87.919225 67.835625,90.012225 L54.035625,102.742725 C53.224875,103.501725 53.046625,104.714975 53.604375,105.686725 L74.574625,142.112975 C76.098375,144.746475 75.615375,148.041225 73.401625,150.128475 L47.601375,174.611975 Z M60.377875,180.321725 C54.386375,180.321725 48.613375,179.384475 43.185375,177.653725 C42.989875,177.619225 42.800125,177.561725 42.616125,177.469725 C39.016625,176.279475 35.566625,174.732725 32.329375,172.881225 C32.225875,172.840975 32.122375,172.794975 32.030375,172.743225 C31.932625,172.685725 31.846375,172.622475 31.760125,172.553475 C14.975875,162.703725 3.677125,144.458975 3.677125,123.626725 C3.677125,92.363975 29.115125,66.925975 60.377875,66.925975 C91.634875,66.925975 117.072875,92.363975 117.072875,123.626725 C117.072875,154.883725 91.634875,180.321725 60.377875,180.321725 L60.377875,180.321725 Z" id="Fill-5" fill="#000000"></path>
            <path d="M60.43135,11.5 L63.03035,8.901 C63.8411,8.09025 63.8411,6.77925 63.03035,5.9685 C62.22535,5.15775 60.9086,5.15775 60.09785,5.9685 L57.49885,8.5675 L54.89985,5.9685 C54.0891,5.15775 52.7781,5.15775 51.96735,5.9685 C51.16235,6.77925 51.16235,8.09025 51.96735,8.901 L54.56635,11.5 L51.96735,14.099 C51.16235,14.90975 51.16235,16.22075 51.96735,17.0315 C52.3756,17.434 52.9046,17.63525 53.4336,17.63525 C53.9626,17.63525 54.49735,17.434 54.89985,17.0315 L57.49885,14.4325 L60.09785,17.0315 C60.5061,17.434 61.0351,17.63525 61.5641,17.63525 C62.0931,17.63525 62.62785,17.434 63.03035,17.0315 C63.8411,16.22075 63.8411,14.90975 63.03035,14.099 L60.43135,11.5 Z" id="Fill-7" fill="#000000"></path>
            <path d="M14.43135,46 L17.03035,43.401 C17.8411,42.59025 17.8411,41.27925 17.03035,40.4685 C16.22535,39.65775 14.9086,39.65775 14.09785,40.4685 L11.49885,43.0675 L8.89985,40.4685 C8.0891,39.65775 6.7781,39.65775 5.96735,40.4685 C5.16235,41.27925 5.16235,42.59025 5.96735,43.401 L8.56635,46 L5.96735,48.599 C5.16235,49.40975 5.16235,50.72075 5.96735,51.5315 C6.3756,51.934 6.9046,52.13525 7.4336,52.13525 C7.9626,52.13525 8.49735,51.934 8.89985,51.5315 L11.49885,48.9325 L14.09785,51.5315 C14.5061,51.934 15.0351,52.13525 15.5641,52.13525 C16.0931,52.13525 16.62785,51.934 17.03035,51.5315 C17.8411,50.72075 17.8411,49.40975 17.03035,48.599 L14.43135,46 Z" id="Fill-9" fill="#000000"></path>
            <mask id="mask-2" fill="white">
                <use xlink:href="#path-1"></use>
            </mask>
            <g id="Clip-12"></g>
            <polygon id="Fill-11" mask="url(#mask-2)" points="0 184 184 184 184 0 0 0"></polygon>
        </g>
    </g>
</svg>

<svg xmlns="http://www.w3.org/2000/svg" xmlns:xlink="http://www.w3.org/1999/xlink" viewBox="0 0 288 288"><defs><path id="a" d="M0 184h184V0H0z"/></defs><g fill="none" fill-rule="evenodd"><path fill="#FFF" d="M0 0h288v288H0z"/><g stroke="#DCDCDC" stroke-linecap="square" stroke-width=".5"><path d="M52.115 52.115v183.77m17.229-183.77v183.77M57.858 52.115v183.77m17.228-183.77v183.77M63.6 52.115v183.77m17.23-183.77v183.77m5.742-183.77v183.77m5.743-183.77v183.77m5.743-183.77v183.77m5.742-183.77v183.77m5.743-183.77v183.77m5.743-183.77v183.77m5.743-183.77v183.77m5.743-183.77v183.77m5.742-183.77v183.77m5.743-183.77v183.77M144 52.115v183.77m5.743-183.77v183.77m5.743-183.77v183.77m5.742-183.77v183.77m5.743-183.77v183.77m5.743-183.77v183.77m5.743-183.77v183.77m5.743-183.77v183.77m5.742-183.77v183.77m5.743-183.77v183.77m5.743-183.77v183.77m5.742-183.77v183.77m5.744-183.77v183.77m5.742-183.77v183.77m5.744-183.77v183.77m5.742-183.77v183.77m5.743-183.77v183.77M235.885 52.115H52.115m183.77 17.229H52.115m183.77-11.486H52.115m183.77 17.228H52.115M235.885 63.6H52.115m183.77 17.23H52.115m183.77 5.742H52.115m183.77 5.743H52.115m183.77 5.743H52.115m183.77 5.742H52.115m183.77 5.743H52.115m183.77 5.743H52.115m183.77 5.743H52.115m183.77 5.743H52.115m183.77 5.742H52.115m183.77 5.743H52.115M235.885 144H52.115m183.77 5.743H52.115m183.77 5.743H52.115m183.77 5.742H52.115m183.77 5.743H52.115m183.77 5.743H52.115m183.77 5.743H52.115m183.77 5.743H52.115m183.77 5.742H52.115m183.77 5.743H52.115m183.77 5.743H52.115m183.77 5.742H52.115m183.77 5.744H52.115m183.77 5.742H52.115m183.77 5.744H52.115m183.77 5.742H52.115m183.77 5.743H52.115"/></g><path d="M52 52h184v184H52V52zm5.75 5.75v172.5h172.5V57.75H57.75z" fill="#97C1FF" fill-rule="nonzero" opacity=".6"/><g transform="translate(52 52)"><path d="M164.83 86.463l-15.75-27.232 10.569-6.1 15.772 27.226-10.591 6.106zM137.51 61.13l-8.596-2.087 2.496-8.482 27.007-15.582 6.095 10.568L137.51 61.13zm-15.117 13.484l-10.223-17.71c4.588-1.553 9.832.304 12.351 4.674 2.524 4.37 1.518 9.821-2.128 13.036zm.8-59.938l10.574-6.101 15.479 26.921-10.563 6.09-15.49-26.91zm56.85 65.406l-16.807-29.015 5.14-2.972a2.05 2.05 0 00.966-1.26 2.041 2.041 0 00-.207-1.564l-8.17-14.15a2.063 2.063 0 00-2.824-.76l-5.307 3.06-16.514-28.71a2.084 2.084 0 00-1.26-.966c-.54-.132-1.103-.07-1.569.207l-14.156 8.17a2.071 2.071 0 00-.765 2.824l16.52 28.71-6.47 3.731c-.46.265-.804.696-.954 1.208l-2.242 7.624c-1.731-1.627-3.807-2.869-6.164-3.501-3.772-.995-7.694-.49-11.057 1.46A2.056 2.056 0 00107.45 57l5.078 8.804-4.307 2.49 2.07 3.582 4.312-2.49 5.342 9.269a2.07 2.07 0 001.26.966c.172.04.356.069.534.069.356 0 .719-.092 1.035-.282 5.692-3.283 8.263-9.844 6.831-15.939l7.734 1.875c.16.04.322.063.488.063.357 0 .72-.098 1.03-.282l6.635-3.83 16.79 29.032a2.063 2.063 0 001.788 1.035c.357 0 .708-.092 1.036-.281l14.179-8.171c.477-.27.822-.725.966-1.26a2.108 2.108 0 00-.207-1.57zm-46.754 94.209l-2.076-3.582c20.948-12.144 33.46-32.97 33.465-55.712h4.146c-.006 24.23-13.294 46.397-35.535 59.294m-30.143-81.174l-9.78 17.037a2.38 2.38 0 000 2.381l8.717 15.163a2.405 2.405 0 002.081 1.201h8.504c.173-1.736.26-3.496.26-5.272a52.3 52.3 0 00-9.782-30.51zM12.86 101.18a52.235 52.235 0 00-5.037 22.448c0 18.681 9.798 35.115 24.524 44.436l8.579-14.835a2.4 2.4 0 000-2.392l-5.239-9.08c-1.53-2.633-1.04-5.934 1.18-8.032l7.928-7.452a2.386 2.386 0 00.437-2.944l-5.916-10.247a2.39 2.39 0 00-2.076-1.196H22.836a6.556 6.556 0 01-5.652-3.26l-4.324-7.446zm23.069 68.965a53.907 53.907 0 007.101 3.1l27.525-26.117c.817-.77.995-1.984.437-2.95l-20.97-36.426a6.513 6.513 0 011.196-8.044l13.8-12.725c.81-.759.995-1.972.431-2.938l-7.463-12.92c-18.216.816-34.052 10.959-42.838 25.754l5.618 9.671a2.395 2.395 0 002.07 1.19H37.24a6.566 6.566 0 015.664 3.272l5.91 10.247a6.525 6.525 0 01-1.178 8.032l-7.93 7.458a2.37 2.37 0 00-.436 2.938l5.238 9.08a6.53 6.53 0 010 6.532l-8.58 14.846zm11.672 4.468a52.608 52.608 0 0012.777 1.564c25.76 0 47.253-18.636 51.71-43.137h-7.924a6.566 6.566 0 01-5.675-3.277l-8.711-15.157a6.554 6.554 0 01-.006-6.515l10.62-18.492c-9.16-10.758-22.58-17.796-37.622-18.475l6.262 10.85a6.499 6.499 0 01-1.196 8.04l-13.8 12.73a2.39 2.39 0 00-.432 2.944l20.97 36.426a6.5 6.5 0 01-1.172 8.015l-25.8 24.484zm12.777 5.71a56.487 56.487 0 01-17.193-2.668 2.059 2.059 0 01-.569-.184 56.417 56.417 0 01-10.287-4.589 2.371 2.371 0 01-.299-.138 2.272 2.272 0 01-.27-.19c-16.784-9.85-28.083-28.094-28.083-48.926 0-31.263 25.438-56.701 56.7-56.701 31.258 0 56.696 25.438 56.696 56.7 0 31.258-25.438 56.696-56.695 56.696zM60.431 11.5l2.6-2.599c.81-.81.81-2.122 0-2.933a2.072 2.072 0 00-2.933 0l-2.6 2.6-2.598-2.6a2.072 2.072 0 00-2.933 0 2.082 2.082 0 000 2.933l2.6 2.599-2.6 2.599a2.082 2.082 0 000 2.933 2.082 2.082 0 002.933 0l2.599-2.6 2.599 2.6a2.082 2.082 0 002.932 0 2.072 2.072 0 000-2.933L60.431 11.5zm-46 34.5l2.6-2.599c.81-.81.81-2.122 0-2.933a2.072 2.072 0 00-2.933 0l-2.6 2.6-2.598-2.6a2.072 2.072 0 00-2.933 0 2.082 2.082 0 000 2.933L8.567 46l-2.6 2.599a2.082 2.082 0 000 2.933 2.082 2.082 0 002.933 0l2.599-2.6 2.599 2.6a2.082 2.082 0 002.932 0 2.072 2.072 0 000-2.933L14.431 46z" fill="#000"/><mask id="b" fill="#fff"><use xlink:href="#a"/></mask><path mask="url(#b)" d="M0 184h184V0H0z"/></g></g></svg>
